X: 335
T: Friends of my heart
C: anon.
O: Ireland
B: Francis O'Neill: "The Dance Music of Ireland" (1907) no. 335
R: Double jig
Z: Transcribed by Frank Nordberg - http://www.musicaviva.com
F: http://www.musicaviva.com/abc/tunes/ireland/oneill-1001/oneill-1001-033
5.abc
M: 6/8
L: 1/8
K: Gm
c|BAG FD(C|D)E^F G2c|dfd cd(c|B)AG (FG)A|BAG FD(C|F)DE (FG)A|(d/e/f)(d c)
A(F|A)GG G2:|
||D|GBd g^fg|dec BAG|FAc f=ef|cdB AGF|GBd (g2a)|bag fga|d=ef gd([Ac]|
B)GG G2:|
W:
W:
W: From Musica Viva - http://www.musicaviva.com
W: the Internet center for free sheet music downloads.


